X: 34722
T: Road To Glountane, The
R: barndance
M: 4/4
K: Dmajor
|:E3F A3B|ceec BcAe|f2 ec ABcA|ecBA FAAF|
E3F A3B|ceec BcAe|f2 ec ABcA|1 ecBc A2AF:|2 ecBc A4||
|:ecef a2 af|ecBA FAAB|cBBA cBBA|ceBA FAAf|
ecef a2 af|ecBA FAAB|cBBA cBBA|1 ceBc A4:|2 ceBc A2AF||

